icons/person-chevron-left.svg

<svg xmlns="http://www.w3.org/2000/svg" width="24" height="24" viewBox="0 0 24 24">
  <path d="M10,16 C12.9230769,16 15.8461538,16.9493754 15.9941334,19.3106425 L16,19.5 L16,20.5 C16,20.975 16,21.90125 15.142625,21.9926875 L15,22 L3,22 C2.1,22 2.01,21.19 2.001,20.6635 L2,19.5 C2,17.0641026 4.84812623,16.0522682 7.76928134,16.0019808 L8,16 L10,16 Z M9,6 C11.209139,6 13,7.790861 13,10 C13,12.209139 11.209139,14 9,14 C6.790861,14 5,12.209139 5,10 C5,7.790861 6.790861,6 9,6 Z M18.3871006,2.20970461 C18.7793918,1.90467972 19.3466228,1.93240926 19.7071068,2.29289322 L19.7071068,2.29289322 L19.7902954,2.38710056 C20.0953203,2.77939176 20.0675907,3.34662282 19.7071068,3.70710678 L19.7071068,3.70710678 L17.415,6 L19.7071068,8.29289322 L19.7902954,8.38710056 C20.0953203,8.77939176 20.0675907,9.34662282 19.7071068,9.70710678 C19.3165825,10.0976311 18.6834175,10.0976311 18.2928932,9.70710678 L18.2928932,9.70710678 L15.2928932,6.70710678 L15.2097046,6.61289944 C14.9046797,6.22060824 14.9324093,5.65337718 15.2928932,5.29289322 L15.2928932,5.29289322 L18.2928932,2.29289322 Z"/>
</svg>

<svg xmlns="http://www.w3.org/2000/svg" viewBox="0 0 24 24">
  <path d="M10 16c2.92 0 5.85.95 6 3.31v1.19c0 .48 0 1.4-.86 1.5H3c-.9 0-.99-.81-1-1.34V19.5c0-2.44 2.85-3.45 5.77-3.5H10zM9 6a4 4 0 1 1 0 8 4 4 0 0 1 0-8zm9.39-3.79a1 1 0 0 1 1.32.08l.08.1a1 1 0 0 1-.08 1.32L17.4 6l2.3 2.3.08.09a1 1 0 0 1-1.5 1.32l-3-3-.08-.1a1 1 0 0 1 .08-1.32l3-3z"/>
</svg>
